X:355
T:Gallowglass, The
R:jig
C:Niel Gow (1727-1807), Scotland
H:Also in Edor, #354
H:Original title "Niel Gow's Lament for his Brother"
Z:id:hn-jig-355
M:6/8
K:Ador
B|cBA eBd|cAA A2B|cBA efg|dBG GAB|
cBA eBd|cAA e2d|cBA GAB|cAA A2:|
|:e|aga e2d|cAA A2B|cBA efg|dBG G2e|
[1 aga e2d|cAA e2d|cBA GAB|cAA A2:|
[2 aeg fdB|ecA BGE|ABc eBd|cAA A2||

